X:3453
T:Corri-Corri (sic) (CT 144)
R:Danza
C:Tradicional
S:Música Tradicional Asturiana, (C) Tello & Tito. Asturies, 2001.
S:http://pagina.de/MusTradAst <telloytito@asturies.org>
N:Canción de Baille, transcrita en Arenas, ayuntamiento de Cabrales. (sic)
N:Se conoce este baile con el nombre de Corri-corri, y se practica especialemnte en el pueblo de Arenas, el día de la festividad de San Juan, o bien en obsequio de algún ilustre huesped que por cualquier circunstancia especial visita dicho pueblo.
N:Es el mayor agasajo y la mejor prueba de simpatía que los naturales de Arenas creen poder ofrecer al distinguido visitante.
N:Toman parte en este baile un solo hombre, denominado El Bailín, y varias mujeres.
N:Inicia aquél el baile, haciendo genuflexiones y saludos a las mujeres, las cuales se muestran esquivas con el galán, rehuyéndole.
N:El las persigue con insistencia, cesando en su empeño ante la persistente esquivez de las mujeres.
N:Ellas entonces se tornan mimosas e insinuantes;
N:mas apenas en la cara del galán se dibuja una sonrisa que indica un creído triunfo, vuelven ellas a sus desdenes y huídas.
N:Se acompaña la melodía de este baile con tambor y panderetas, y tanto la persona que canta como las que acompañan (casi siempre mujeres), están situadas a corta distancia de los bailadores.
O:Arenas (Cabrales) (sic)
A:Asturies
Z:Cancioneru de Torner 144
M:2/4
L:1/8
Q:1/4=132
W:Fuime a la mar y pesqué
W:un pescadito en la rede,
W:un pescadito en la rede;
W:¡Ai! quien te pescara a tí,
W:niña de la saya verde.
K:Gm
^FG
|BA ^FG|B2-Bc/4B/4A/4B/4|A4-|A z G^F|
GB AA|G G-G2|z2 G^F|GB AA|GG ^FG|
BA ^FG|B2-Bc/4B/4A/4B/4|A4-|A z G^F|
GB AA|G G-G2 :||


